flutter/assets/fullscreen.svg

<svg xmlns="http://www.w3.org/2000/svg" width="32pt" height="32pt" style="isolation:isolate" viewBox="404.315 521.772 32 32"><path fill-rule="evenodd" d="M411.985 533.763a1.815 1.815 0 0 1-1.812 1.812c-.479 0-.943-.196-1.284-.536a1.834 1.834 0 0 1-.529-1.276v-2.806c0-1.312.522-2.566 1.45-3.494a4.938 4.938 0 0 1 3.494-1.45h2.799c.486 0 .942.196 1.283.536.341.334.529.798.529 1.276a1.8 1.8 0 0 1-.529 1.283c-.341.341-.797.53-1.283.53h-2.799c-.348 0-.688.137-.935.391-.246.247-.384.58-.384.928v2.806Zm4.118 12.143a1.802 1.802 0 0 1 1.812 1.812c0 .479-.188.943-.529 1.276a1.81 1.81 0 0 1-1.283.537h-2.799a4.938 4.938 0 0 1-3.494-1.45 4.939 4.939 0 0 1-1.45-3.495v-2.805c0-.479.196-.935.529-1.276a1.824 1.824 0 0 1 1.284-.537c.485 0 .942.196 1.283.537.341.341.529.797.529 1.276v2.805c0 .348.138.682.384.928.247.254.587.392.935.392h2.799Zm8.424-16.268c-.486 0-.943-.189-1.283-.53a1.8 1.8 0 0 1-.529-1.283c0-.478.188-.942.529-1.276.34-.34.797-.536 1.283-.536h2.798a4.94 4.94 0 0 1 3.495 1.45 4.938 4.938 0 0 1 1.45 3.494v2.806a1.823 1.823 0 0 1-1.813 1.812c-.486 0-.942-.196-1.283-.536a1.8 1.8 0 0 1-.529-1.276v-2.806a1.31 1.31 0 0 0-.385-.928 1.302 1.302 0 0 0-.935-.391h-2.798Zm4.118 12.143c0-.479.188-.935.529-1.276a1.81 1.81 0 0 1 1.283-.537 1.82 1.82 0 0 1 1.813 1.813v2.805a4.939 4.939 0 0 1-1.45 3.495 4.94 4.94 0 0 1-3.495 1.45h-2.798c-.486 0-.943-.196-1.283-.537a1.784 1.784 0 0 1-.529-1.276 1.804 1.804 0 0 1 1.812-1.812h2.798c.348 0 .689-.138.935-.392a1.31 1.31 0 0 0 .385-.928v-2.805Z"/><path fill="none" d="M404.315 521.772h32v32h-32v-32Z"/></svg>

<?xml version="1.0" encoding="UTF-8" standalone="no"?>
<svg xmlns="http://www.w3.org/2000/svg" xmlns:xlink="http://www.w3.org/1999/xlink" style="isolation:isolate" viewBox="404.315 521.772 32 32" width="32pt" height="32pt"><g><path d=" M 411.985 533.763 C 411.985 534.241 411.797 534.698 411.456 535.039 C 411.115 535.379 410.658 535.575 410.173 535.575 C 409.694 535.575 409.23 535.379 408.889 535.039 C 408.556 534.698 408.36 534.241 408.36 533.763 L 408.36 530.957 C 408.36 529.645 408.882 528.391 409.81 527.463 C 410.738 526.535 411.992 526.013 413.304 526.013 L 416.103 526.013 C 416.589 526.013 417.045 526.209 417.386 526.549 C 417.727 526.883 417.915 527.347 417.915 527.825 C 417.915 528.311 417.727 528.768 417.386 529.108 C 417.045 529.449 416.589 529.638 416.103 529.638 L 413.304 529.638 C 412.956 529.638 412.616 529.775 412.369 530.029 C 412.123 530.276 411.985 530.609 411.985 530.957 L 411.985 533.763 L 411.985 533.763 L 411.985 533.763 L 411.985 533.763 Z  M 416.103 545.906 C 416.589 545.906 417.045 546.094 417.386 546.435 C 417.727 546.776 417.915 547.233 417.915 547.718 C 417.915 548.197 417.727 548.661 417.386 548.994 C 417.045 549.335 416.589 549.531 416.103 549.531 L 413.304 549.531 C 411.992 549.531 410.738 549.009 409.81 548.081 C 408.882 547.153 408.36 545.899 408.36 544.586 L 408.36 541.781 C 408.36 541.302 408.556 540.846 408.889 540.505 C 409.23 540.164 409.694 539.968 410.173 539.968 C 410.658 539.968 411.115 540.164 411.456 540.505 C 411.797 540.846 411.985 541.302 411.985 541.781 L 411.985 544.586 C 411.985 544.934 412.123 545.268 412.369 545.514 C 412.616 545.768 412.956 545.906 413.304 545.906 L 416.103 545.906 L 416.103 545.906 L 416.103 545.906 Z  M 424.527 529.638 C 424.041 529.638 423.584 529.449 423.244 529.108 C 422.903 528.768 422.715 528.311 422.715 527.825 C 422.715 527.347 422.903 526.883 423.244 526.549 C 423.584 526.209 424.041 526.013 424.527 526.013 L 427.325 526.013 C 428.637 526.013 429.892 526.535 430.82 527.463 C 431.748 528.391 432.27 529.645 432.27 530.957 L 432.27 533.763 C 432.27 534.241 432.074 534.698 431.74 535.039 C 431.4 535.379 430.936 535.575 430.457 535.575 C 429.971 535.575 429.515 535.379 429.174 535.039 C 428.833 534.698 428.645 534.241 428.645 533.763 L 428.645 530.957 C 428.645 530.609 428.507 530.276 428.26 530.029 C 428.014 529.775 427.673 529.638 427.325 529.638 L 424.527 529.638 L 424.527 529.638 Z  M 428.645 541.781 C 428.645 541.302 428.833 540.846 429.174 540.505 C 429.515 540.164 429.971 539.968 430.457 539.968 C 430.936 539.968 431.4 540.164 431.74 540.505 C 432.074 540.846 432.27 541.302 432.27 541.781 L 432.27 544.586 C 432.27 545.899 431.748 547.153 430.82 548.081 C 429.892 549.009 428.637 549.531 427.325 549.531 L 424.527 549.531 C 424.041 549.531 423.584 549.335 423.244 548.994 C 422.903 548.661 422.715 548.197 422.715 547.718 C 422.715 547.233 422.903 546.776 423.244 546.435 C 423.584 546.094 424.041 545.906 424.527 545.906 L 427.325 545.906 C 427.673 545.906 428.014 545.768 428.26 545.514 C 428.507 545.268 428.645 544.934 428.645 544.586 L 428.645 541.781 Z " fill-rule="evenodd" fill="rgb(0,0,0)"/><path d=" M 404.315 521.772 L 436.315 521.772 L 436.315 553.772 L 404.315 553.772 L 404.315 521.772 Z " fill="none"/></g></svg>
